X:903
T:Reel 903
L:1/8
M: 4/4
K: A Mixolydian
CB,|:A,CECAEFE|DB,GB,DEFD|A,CECAECE|FDB,DGDCB,|A,CEAcEAE|DB,GB,AB,GB,|FE(3FEDECA,C|B,A,A,B,B,A,GB,:||:CA,EA,FA,EA,|FGAFGEDB,|G,A,B,A,CEED|B,CDB,CA,EF|EA,A,2FA,EA,|FDGFEAGA|ECB,CD2FD|(3B,CDEB,B,A,A,B,:|.abc